X: 14
T: Dutchess [sic] of Brunswick's Waltz, The
M:3/8
L:1/8
R:Waltz
B:Goulding & Co. - Twenty Four Country Dances for the Year 1808 (London)
N:"With proper Tune & Directions to each Dance (as they may be
N:performed at Court, Bath, and all Public Assemblys."
Z:Transcribed and edited by Flynn Titford-Mock
Z:abcs's:AK/Fiddler's Companion
K:G
G/B/|ddd|d>gd/B/|d/c/B/c/e/c/|A2 d/c/|A>Bc/A/|G/F/E/D/E/F/|G2:||
d/B/|[FA][FA] d/B/|[FA][FA] d/B/|[FA][FA] d/B/|A2 G/B/|ddd|
d>gd/B/|d/c/B/c/e/c/|A2 d/c/|BGG|A>Bc/A/|G/F/E/D/E/F/|G2||

%%sep 1 1 500
